X: 1
T: Ane Louise trekant
C: Thomas Thomsen (Denmark)
R: jig
Z: 2006 John Chambers <jc:trillian.mit.edu>
F: http://www.folketshus.dk/cgi-bin/visnode.cgitr-anelou
M: 6/8
L: 1/8
K: D
d/d/ \
| "D"dAA Aff | fdd daa | afd afd | "A7"c2a g2c/c/ \
| "A7"cAA Aee | ecc caa | age age |1 "D"d2b a2 :|2 "D"d3 d2 :|
K: G
|: D \
| "G"B3 c2(3BcB | "Am"A2E A2G | "D7"Fed cBA | "G"GBG D2D \
| "G"B3 c2(3BcB | "Am"A2E A2G | "D7"Fed cBA | "G"G3 G2 :|
